X:45
T:Going Up Camborne Hill, Coming Down
F:www.mudcat.org/thread.cfmthreadid=4167
M:6/8
Q:1/4=160
K:Ab
E EA AA|A GAB3-|Bz EB BB|BA Bc3-|
cz cc Bc|d4z2|c3B AB|c4z2|d3c BA|BA GA3-|A|]
%c.f. 28ChKe
